X:1
T:St. Clare, 887.85
T:Alfred James Eyre, 1889
T:St. Clare, 887.85
T:Public Domain
C:Alfred James Eyre, 1889
Z:Public Domain
%%score ( 1 2 ) ( 3 4 )
L:1/8
M:4/4
K:Eb
V:1 treble 
V:2 treble 
V:3 bass 
V:4 bass 
V:1
 G3 G c2 G2 | C2 [=B,D]2 [CE]2 [DF]2 | [EG]2 (G=A) [GB]2 [Gc]2 | [_F=A]3 G G4 | %4
 D2 z B [Ee]2 [EB]2 x | E2 [EF]2 [EG]2 [EA]2 | [EB]2 [Ec]2 E2 z G x | [EG]4 |] %8
V:2
 G3 G c2 G2 | C2 x6 | x2 G2 x4 | x3 G G4 | B3 D2 x4 | E2 x6 | x4 A3 D2 | x4 |] %8
V:3
 G,3 G, C2 G,2 | [E,G,]2 [D,G,]2 [C,G,]2 [B,,B,]2 | [E,B,]2 [C,E]2 [G,D]2 [E,C]2 | %3
 [D,C]3 [G,B,] [G,B,]4 | [G,B,]2 [F,A,]2 G,2 z F, x | [C,G,]2 [C,A,]2 [B,,B,]2 [A,,C]2 | %6
 [G,,B,]2 [A,,A,]2 [F,,C]2 [B,,B,]2 x | [E,,E,B,]4 |] %8
V:4
 G,3 G, C2 G,2 | x8 | x8 | x8 | x4 E,3 G,2 | x8 | x9 | x4 |] %8

